www/assets/icons/php.svg

<svg width="24" height="24" viewBox="0 0 24 24" xmlns="http://www.w3.org/2000/svg" fill='currentColor'><path d="M12.75 9H14.25V15H12.75V12.5H10.75V15H9.25V9H10.75V11H12.75V9ZM7.75 10.5V11.5C7.75 12.3 7.05 13 6.25 13H4.25V15H2.75V9H6.25C7.05 9 7.75 9.7 7.75 10.5ZM6.25 10.5H4.25V11.5H6.25V10.5ZM21.25 10.5V11.5C21.25 12.3 20.55 13 19.75 13H17.75V15H16.25V9H19.75C20.55 9 21.25 9.7 21.25 10.5ZM19.75 10.5H17.75V11.5H19.75V10.5Z"/></svg>

<svg xmlns="http://www.w3.org/2000/svg" width="24" height="24" viewBox="0 0 24 24" fill='currentColor'><path d="M12.75 9h1.5v6h-1.5v-2.5h-2V15h-1.5V9h1.5v2h2zm-5 1.5v1c0 .8-.7 1.5-1.5 1.5h-2v2h-1.5V9h3.5c.8 0 1.5.7 1.5 1.5m-1.5 0h-2v1h2zm15 0v1c0 .8-.7 1.5-1.5 1.5h-2v2h-1.5V9h3.5c.8 0 1.5.7 1.5 1.5m-1.5 0h-2v1h2z"/></svg>
